icons/moon-clear-fill.svg

<svg xmlns="http://www.w3.org/2000/svg" width="24" height="24" fill="none"><g clip-path="url(#a)"><g><path fill="#121212" d="M9.822 2.238C9.05219 3.90906 8.81303 5.77591 9.13672 7.58706C9.46041 9.39821 10.3314 11.0667 11.6324 12.3676C12.9333 13.6686 14.6018 14.5396 16.4129 14.8633C18.2241 15.187 20.0909 14.9478 21.762 14.178C20.768 18.654 16.775 22 12 22C6.477 22 2 17.523 2 12C2 7.225 5.346 3.232 9.822 2.238ZM18.164 2.291L19 2.5V3.5L18.164 3.709C17.8124 3.79693 17.4913 3.97875 17.235 4.23503C16.9788 4.4913 16.7969 4.8124 16.709 5.164L16.5 6H15.5L15.291 5.164C15.2031 4.8124 15.0212 4.4913 14.765 4.23503C14.5087 3.97875 14.1876 3.79693 13.836 3.709L13 3.5V2.5L13.836 2.291C14.1874 2.20291 14.5083 2.02102 14.7644 1.76475C15.0205 1.50849 15.2021 1.18748 15.29 0.836L15.5 0H16.5L16.709 0.836C16.7969 1.1876 16.9788 1.5087 17.235 1.76497C17.4913 2.02125 17.8124 2.20307 18.164 2.291ZM23.164 7.291L24 7.5V8.5L23.164 8.709C22.8124 8.79693 22.4913 8.97875 22.235 9.23503C21.9788 9.4913 21.7969 9.8124 21.709 10.164L21.5 11H20.5L20.291 10.164C20.2031 9.8124 20.0212 9.4913 19.765 9.23503C19.5087 8.97875 19.1876 8.79693 18.836 8.709L18 8.5V7.5L18.836 7.291C19.1876 7.20307 19.5087 7.02125 19.765 6.76497C20.0212 6.5087 20.2031 6.1876 20.291 5.836L20.5 5H21.5L21.709 5.836C21.7969 6.1876 21.9788 6.5087 22.235 6.76497C22.4913 7.02125 22.8124 7.20307 23.164 7.291Z"/></g></g><defs><clipPath id="a"><rect width="24" height="24" fill="white"/></clipPath></defs></svg>

<svg width="24" height="24" fill="none" xmlns="http://www.w3.org/2000/svg"><g clip-path="url(#a)"><path d="M9.822 2.238a9 9 0 0 0 11.94 11.94C20.768 18.654 16.775 22 12 22 6.477 22 2 17.523 2 12c0-4.775 3.346-8.768 7.822-9.762Zm8.342.053L19 2.5v1l-.836.209a2 2 0 0 0-1.455 1.455L16.5 6h-1l-.209-.836a2 2 0 0 0-1.455-1.455L13 3.5v-1l.836-.209A2 2 0 0 0 15.29.836L15.5 0h1l.209.836a2 2 0 0 0 1.455 1.455Zm5 5L24 7.5v1l-.836.209a2 2 0 0 0-1.455 1.455L21.5 11h-1l-.209-.836a2 2 0 0 0-1.455-1.455L18 8.5v-1l.836-.209a2 2 0 0 0 1.455-1.455L20.5 5h1l.209.836a2 2 0 0 0 1.455 1.455Z" /></g><defs><clipPath id="a"><path fill="#fff" d="M0 0h24v24H0z"/></clipPath></defs></svg>
